src/assets/filled/Mirror.svg

<?xml version="1.0" encoding="UTF-8"?>
<svg width="24" height="24" viewBox="0 0 24 24" xmlns="http://www.w3.org/2000/svg">
 <path d="m12 18c4.4183 0 8-3.5817 8-8 0-4.4183-3.5817-8-8-8-4.4183 0-8 3.5817-8 8 0 4.4183 3.5817 8 8 8z"/>
 <path d="m18 22.75h-12c-0.41 0-0.75-0.34-0.75-0.75s0.34-0.75 0.75-0.75h12c0.41 0 0.75 0.34 0.75 0.75s-0.34 0.75-0.75 0.75z"/>
</svg>

<svg width="24" height="24" viewBox="0 0 24 24"  xmlns="http://www.w3.org/2000/svg">
<path d="M12 18C16.4183 18 20 14.4183 20 10C20 5.58172 16.4183 2 12 2C7.58172 2 4 5.58172 4 10C4 14.4183 7.58172 18 12 18Z" />
<path d="M18 22.75H6C5.59 22.75 5.25 22.41 5.25 22C5.25 21.59 5.59 21.25 6 21.25H18C18.41 21.25 18.75 21.59 18.75 22C18.75 22.41 18.41 22.75 18 22.75Z" />
</svg>
